X:1
T:Bach for Solo Flute
T:Gavotte II
T:Bach for Solo Flute (XII)
T:Gavotte II from Suite No. 5 for Cello (BWV 1011) Transcription for Flute 
T:Johann Sebastian Bach (1685-1750)
T:Transcription by Felix Scharpf
T:twoflutes 2020 / Felix Scharpf / Johann_Sebastian_Bach_signature.svg-2.png
T:twoflutes 2020 / Felix Scharpf / Johann_Sebastian_Bach_signature.svg-2.png
C:Johann Sebastian Bach (1685-1750)
Z:twoflutes 2020 / Felix Scharpf / Johann_Sebastian_Bach_signature.svg-2.png
L:1/8
Q:1/4=130
M:4/4
K:Eb
V:1 treble nm="Flöte" snm="Fl."
V:1
!f! (3(gf)g (3(ag)f | g2- (3gfe (3(de)f (3(ed)c | (3(=Bc)d (3(GB)d (3(gf)g (3(ag)f | %3
 (3(gf)e (3(de)f (3(ed)c (3(=Bc)d | .c2 !breath!C2 |!p! (3(gf)g (3(ag)f | %6
 g2- (3gfe (3(de)f (3(ed)c | (3(=Bc)d (3(GB)d (3(gf)g (3(ag)f | (3(gf)e (3(de)f (3(ed)c (3(=Bc)d | %9
 .c2 !breath!C2 |:!mf! (3(ed)e (3(fe)d | e2- (3efg (3(ag)f (3(gf)e | %12
 (3(de)f (3(Bd)f (3(b=a)b (3(c'b)a | (3(b=a)g (3(e'd')c' (3(ba)g (3(^fg)a | %14
 .g2 !breath!G2!mp! (3(g"_cresc."f)g (3(ag)f | g2- (3gfe (3(de)f (3(ed)c | %16
 (3(=Bc)d (3(GB)d (3(gf)g (3(ag)f | %17
 (3(gf)e (3(de)f (3(ed)c[Q:1/4=110]"_poco rall." (3(=Bc)!breath!d | %18
!f![Q:1/4=130]"_a tempo" (3(cG)E (3(CE)G (3(ce)g (3(c'd')=b | %19
 c'2- (3!breath!c'_ba (3(ga)b (3(ag)f | (3(=ef)g (3(cd)e (3(fe)f (3(gf)e | %21
 (3(f_e)_d (3(cd)e (3(d=e)f (3(gf)e | (3(fc)B (3(=AB)c (3(B=e)f (3(gf)e | %23
 (3(=Bf)g (3(ag)f (3(c'b)a (3(gf)=e | %24
 (3(fg)a (3(ga)f (3(=bc')d'[Q:1/4=110]"_poco rall." (3(c'd')!breath!b | %25
[Q:1/4=130]"_a tempo""_dim.""_dim." (3(c'_b)a (3(gf)e (3(ag)f (3(ed)c | %26
 (3(=Bc)d (3(GB)d!mf! (3(gf)g (3(ag)f |1 (3(gf)e (3(de)f (3(ed)c (3(=Bc)d | .c2 !breath!C2 :|2 %29
 (3(gf)e (3(de)f"_rit."[Q:1/4=100] (3(ed)c[Q:1/4=90] (3(=Bc)d | %30
[Q:1/4=70] !tenuto!c2[Q:1/4=40] !tenuto!!fermata!C2 |] %31

